X:11
T: The boys of Mullaghbawn, S. 52
N: I0510
O: Irland
S: O BOYLE, Sean: 25 Irish Folksongs, Dublin 1976]
R: Klagelied]
M: 4/4
L: 1/8
K: E
EE | =G3AB3G | E2E4EE | =G3AB3B | A2=G4
B2 | =d3Bd2d2 | e2e4B2 | AA3=G2E2 | =D6
d2 | =d3Bd3d | e2e4BB | A3=GA3B | A=GE4
EE | =G2AB=d2e2 | B3A=G2E2 | =D3DEE3 | E6

